ultrasound/ui/components/snx-small.svg

<svg width="24" height="24" viewBox="0 0 24 24" fill="none" xmlns="http://www.w3.org/2000/svg">
<path d="M24 12C24 18.6274 18.6274 24 12 24C5.37258 24 0 18.6274 0 12C0 5.37258 5.37258 0 12 0C18.6274 0 24 5.37258 24 12Z" fill="#012546"/>
<path d="M8.0858 9.12476C7.98043 9.00522 7.85069 8.94531 7.69631 8.94531H4.53904C4.51099 8.94531 4.48805 8.9365 4.47077 8.9189C4.45321 8.90158 4.44443 8.88199 4.44443 8.86098V6.75102C4.44443 6.73001 4.45321 6.7107 4.47077 6.69309C4.48805 6.67549 4.51099 6.66669 4.53904 6.66669H7.87534C8.7172 6.66669 9.44349 7.00798 10.0539 7.69001L10.8644 8.67102L9.28571 10.5805L8.0858 9.12476ZM13.9165 7.6795C14.527 7.00429 15.2567 6.66669 16.1056 6.66669H19.4314C19.4595 6.66669 19.4804 6.67379 19.4946 6.6877C19.5085 6.7019 19.5156 6.72291 19.5156 6.75102V8.86098C19.5156 8.88199 19.5085 8.90158 19.4946 8.9189C19.4804 8.9365 19.4595 8.94531 19.4314 8.94531H16.2742C16.1198 8.94531 15.99 9.00522 15.8847 9.12476L13.5588 11.9309L15.8951 14.7581C16.0005 14.8708 16.1266 14.9271 16.2742 14.9271H19.4314C19.4595 14.9271 19.4804 14.9359 19.4946 14.9535C19.5085 14.9711 19.5156 14.9941 19.5156 15.0219V17.1319C19.5156 17.1529 19.5085 17.1725 19.4946 17.1898C19.4804 17.2074 19.4595 17.2162 19.4314 17.2162H16.1056C15.2567 17.2162 14.5304 16.8752 13.927 16.1929L11.9906 13.8509L10.0539 16.1929C9.44349 16.8752 8.7138 17.2162 7.86486 17.2162H4.53904C4.51099 17.2162 4.48975 17.2074 4.47587 17.1898C4.46171 17.1722 4.45491 17.1495 4.45491 17.1211V15.0111C4.45491 14.9901 4.46171 14.9708 4.47587 14.9532C4.48975 14.9356 4.51099 14.9268 4.53904 14.9268H7.69631C7.84361 14.9268 7.97335 14.8672 8.0858 14.7473L10.3695 11.9835L13.9165 7.6795Z" fill="#00D1FF"/>
</svg>

<svg width="24" height="24" fill="none" viewBox="0 0 24 24" xmlns="http://www.w3.org/2000/svg">
  <path fill="#012546" d="M24 12c0 6.627-5.373 12-12 12S0 18.627 0 12 5.373 0 12 0s12 5.373 12 12"/>
  <path fill="#00D1FF" d="M8.086 9.125a.5.5 0 0 0-.39-.18H4.54a.1.1 0 0 1-.068-.026.08.08 0 0 1-.027-.058v-2.11a.08.08 0 0 1 .027-.058.1.1 0 0 1 .068-.026h3.336q1.263 0 2.179 1.023l.81.981-1.578 1.91zm5.83-1.445q.916-1.013 2.19-1.013h3.325q.043 0 .064.02.02.022.02.064v2.11q0 .031-.02.058-.022.027-.064.026h-3.157a.5.5 0 0 0-.39.18L13.56 11.93l2.336 2.827a.5.5 0 0 0 .38.17h3.156q.043 0 .064.025.02.027.02.069v2.11a.1.1 0 0 1-.02.058q-.022.026-.064.026h-3.325q-1.275 0-2.179-1.023l-1.936-2.342-1.937 2.342q-.915 1.023-2.19 1.023H4.54q-.043 0-.063-.026a.1.1 0 0 1-.021-.069v-2.11a.1.1 0 0 1 .02-.058q.022-.026.064-.026h3.157a.52.52 0 0 0 .39-.18l2.284-2.764z"/>
</svg>
